X:1
M:6/8
K:A
cde ||f2e ^d2e|c3 Ace|f2e ^d2e|d3 -dcd|g3 f3|
g3 f3|e2e e^d=d|c3 Ace|f2e ^d2e|c3 Ace|
g3 e3|e3 e3|c3 c2e|d3 c3|ABc A2A|F2A G2c|\
Bdd f3|
g3 g2d|B2c ABc|A2c BAc|d3 -d2|c2||